X:1
Q:1/4=160
T: Polka Kyrva
M:C|
L:1/8
K:F
%%begintext center
(AABBAA)
All but intro played 1 octave higher than written.
%%endtext
%
"N.C."D2E2F2D2 | G2A2B2G2 | A2B2A2^c2 | d4 d4 | 
|:"Dm"D2F2 AGF2|AGF2 AGF2|"A7"E2G4E2|"Dm"DEFGA4|
"Dm"D2F2 AGF2|AGF2 AGF2|"A7"E2G4E2| [1"Dm"D4 D4:| [2"Dm"D4C4|
|:"F"c2A4A2|c2c2 dcBA|"Gm"B2G4GA|B2B2 cBAG|
"Dm"A2F4F2|A2A2 BAGF| [1"A7"E2G2 F2E2|"Dm"D^CDE FEFG:| [2"A7"ABA2 EFE2|"Dm"D4 D4|]
%%begintext center
Celebrating the life of Zach Konowalchuk
%%endtext
